X: 1
T:The Pidgeon on the Gate (1st setting)
M:C|
L:1/8
R:Reel
B:The Roche Collection Vol. 1
K:EDor
dc|B>E (3EEE BEdE|BE (3EEE B2AF|D>D (3FED ADFD|ADFD Adcd|BE (3EEE BEdE|\
BE (3EEE B2AF|A2AB d2ef|gefd e3z||B>e (3eee efed|Bdef gefd|Bd (3ddd dedB
|\
ABde fded|B>e (3eee efed|Bdef g2fe|dBAG FAdB|AGFG E2||
